src/images/technology-icons/react-native-icon.svg

<?xml version="1.0" encoding="UTF-8"?>
<svg width="280px" height="280px" viewBox="0 0 280 280" version="1.1" xmlns="http://www.w3.org/2000/svg" xmlns:xlink="http://www.w3.org/1999/xlink">
    <!-- Generator: Sketch 42 (36781) - http://www.bohemiancoding.com/sketch -->
    <title>react-native-icon</title>
    <desc>Created with Sketch.</desc>
    <defs></defs>
    <g id="Page-1" stroke="none" stroke-width="1" fill="none" fill-rule="evenodd">
        <g id="react-native-icon">
            <g id="icon-react-native">
                <g id="Group-12" transform="translate(13.548387, 81.290323)"></g>
                <path d="M149.032258,81.2982676 C221.569256,81.8090564 280,106.884133 280,137.741935 C280,168.599738 221.569256,193.674815 149.032258,194.185603 L149.032258,185.15361 C216.580598,184.693755 270.967742,163.642925 270.967742,137.741935 C270.967742,111.840946 216.580598,90.7901155 149.032258,90.3302612 L149.032258,81.2982676 Z" id="Combined-Shape" fill="#36383A"></path>
                <path d="M61.5140097,116.864424 C83.3240775,110.261267 110.031272,106.375899 138.880111,106.375899 C212.458692,106.375899 272.105917,131.650147 272.105917,162.827512 C272.105917,181.230484 251.323918,197.576719 219.161753,207.882391 L208.947165,201.984996 C241.62914,193.44305 263.073659,179.091475 263.073659,162.827512 C263.073659,136.638526 207.470313,115.408157 138.880111,115.408157 C114.227497,115.408157 91.252551,118.150737 71.9339736,122.880393 L61.5140097,116.864424 Z" id="Combined-Shape" fill="#36383A" transform="translate(166.809963, 157.129145) rotate(-300.000000) translate(-166.809963, -157.129145) "></path>
                <path d="M61.5162463,158.623621 C83.3229976,165.223457 110.023414,169.10668 138.864292,169.10668 C212.442873,169.10668 272.090098,143.832432 272.090098,112.655067 C272.090098,94.2554719 251.315722,77.9118575 219.163632,67.6058606 L208.95029,73.5025365 C241.621608,82.0450757 263.05784,96.3942469 263.05784,112.655067 C263.05784,138.844054 207.454494,160.074422 138.864292,160.074422 C114.219899,160.074422 91.2520553,157.333671 71.9374825,152.606918 L61.5162463,158.623621 Z" id="Combined-Shape" fill="#36383A" transform="translate(166.803172, 118.356270) rotate(-60.000000) translate(-166.803172, -118.356270) "></path>
                <path d="M149.032258,113.004831 C161.692097,114.149576 171.612903,124.825744 171.612903,137.826973 C171.612903,150.828202 161.692097,161.50437 149.032258,162.649115 L149.032258,113.004831 Z" id="Combined-Shape" fill="#36383A"></path>
                <path d="M0,5.99402094 C0,2.68361458 2.69443831,0 6.00286452,0 L138.513265,0 C141.828555,0 144.516129,2.68146835 144.516129,5.99402094 L144.516129,274.005979 C144.516129,277.316385 141.821691,280 138.513265,280 L6.00286452,280 C2.68757399,280 0,277.318532 0,274.005979 L0,5.99402094 Z M9.03225806,11.0272016 L9.03225806,268.972798 C9.03225806,270.070641 9.92724061,270.967742 11.0312575,270.967742 L133.484871,270.967742 C134.591573,270.967742 135.483871,270.074575 135.483871,268.972798 L135.483871,11.0272016 C135.483871,9.92935886 134.588888,9.03225806 133.484871,9.03225806 L11.0312575,9.03225806 C9.92455605,9.03225806 9.03225806,9.92542473 9.03225806,11.0272016 Z" id="Combined-Shape" fill="#36383A"></path>
                <path d="M18.0645161,36.1290323 L126.451613,36.1290323 L126.451613,225.806452 L18.0645161,225.806452 L18.0645161,36.1290323 Z M27.0967742,45.1612903 L27.0967742,216.774194 L117.419355,216.774194 L117.419355,45.1612903 L27.0967742,45.1612903 Z" id="Combined-Shape" fill="#36383A"></path>
                <rect id="Rectangle-10" fill="#36383A" x="45.1612903" y="18.0645161" width="54.1935484" height="9.03225806"></rect>
                <path d="M72.2580645,261.935484 C64.7754969,261.935484 58.7096774,255.869664 58.7096774,248.387097 C58.7096774,240.904529 64.7754969,234.83871 72.2580645,234.83871 C79.7406321,234.83871 85.8064516,240.904529 85.8064516,248.387097 C85.8064516,255.869664 79.7406321,261.935484 72.2580645,261.935484 Z M72.2580645,252.903226 C74.7522537,252.903226 76.7741935,250.881286 76.7741935,248.387097 C76.7741935,245.892908 74.7522537,243.870968 72.2580645,243.870968 C69.7638753,243.870968 67.7419355,245.892908 67.7419355,248.387097 C67.7419355,250.881286 69.7638753,252.903226 72.2580645,252.903226 Z" id="Combined-Shape" fill="#36383A"></path>
            </g>
        </g>
    </g>
</svg>

<svg width="280" height="280" viewBox="0 0 280 280" xmlns="http://www.w3.org/2000/svg"><title>react-native-icon</title><g fill="none" fill-rule="evenodd"><path d="M149.032 81.298C221.57 81.81 280 106.884 280 137.742c0 30.858-58.43 55.933-130.968 56.444v-9.032c67.549-.46 121.936-21.511 121.936-47.412S216.58 90.79 149.032 90.33v-9.032z" fill="#36383A"/><path d="M149.032 45.808c16.624 15.586 33.342 36.773 47.767 61.757 36.789 63.72 44.724 128.014 17.724 143.602-15.937 9.202-40.485-.623-65.49-23.323v-11.795c23.738 24.032 46.889 35.428 60.974 27.296 22.68-13.094 13.265-71.863-21.03-131.264-12.327-21.35-26.19-39.876-39.945-54.241V45.808z" fill="#36383A"/><path d="M149.032 229.671c16.62-15.585 33.332-36.767 47.753-61.744 36.79-63.72 44.725-128.014 17.724-143.602-15.934-9.2-40.475.619-65.477 23.31V59.43c23.734-24.023 46.879-35.413 60.961-27.282 22.68 13.094 13.265 71.863-21.03 131.264-12.322 21.343-26.18 39.863-39.93 54.227v12.033z" fill="#36383A"/><path d="M149.032 113.005c12.66 1.145 22.58 11.82 22.58 24.822 0 13.001-9.92 23.677-22.58 24.822v-49.644zM0 5.994C0 2.684 2.694 0 6.003 0h132.51a5.997 5.997 0 0 1 6.003 5.994v268.012c0 3.31-2.694 5.994-6.003 5.994H6.003A5.997 5.997 0 0 1 0 274.006V5.994zm9.032 5.033v257.946a2 2 0 0 0 2 1.995h122.453a1.995 1.995 0 0 0 1.999-1.995V11.027a2 2 0 0 0-2-1.995H11.032a1.995 1.995 0 0 0-1.999 1.995z" fill="#36383A"/><path d="M18.065 36.129h108.387v189.677H18.065V36.13zm9.032 9.032v171.613h90.322V45.161H27.097zM45.161 18.065h54.194v9.032H45.161zM72.258 261.935c-7.483 0-13.548-6.065-13.548-13.548 0-7.482 6.065-13.548 13.548-13.548s13.548 6.066 13.548 13.548c0 7.483-6.065 13.548-13.548 13.548zm0-9.032a4.516 4.516 0 1 0 0-9.032 4.516 4.516 0 0 0 0 9.032z" fill="#36383A"/></g></svg>
